X: 3
T: The Fairy
R: reel
M: 4/4
L: 1/8
K: Dmaj
|:f2 fd f2 fd | f2 fd cd e2 | f2 fd gfed | cABc dcde |
(3fgf DA (3fgf DA | f2 fd cd e2 | f2 fd gfed | cABc defg ||
|:a3f b3a | g3e a3g | f2 fd gfed | cABc defg |
a3f b3a | g3e a3g | f2 fd gfed | cABc d3e ||


Tune 2944	Setting 21991

